app/images/logos/site-logo.svg

<?xml version="1.0" encoding="UTF-8" standalone="no"?>
<svg width="157px" height="16px" viewBox="0 0 157 16" version="1.1" xmlns="http://www.w3.org/2000/svg" xmlns:xlink="http://www.w3.org/1999/xlink" xmlns:sketch="http://www.bohemiancoding.com/sketch/ns">
    <!-- Generator: Sketch 3.1 (8751) - http://www.bohemiancoding.com/sketch -->
    <title>site-logo</title>
    <desc>Created with Sketch.</desc>
    <defs></defs>
    <g id="Page-1" stroke="none" stroke-width="1" fill="none" fill-rule="evenodd" sketch:type="MSPage">
        <g id="site-logo" sketch:type="MSLayerGroup" fill="#000000">
            <path d="M8.39405941,15.9831579 C3.47161716,15.9831579 0.0690869087,12.6147368 0.0690869087,8.05052632 L0.0690869087,8 C0.0690869087,3.62105263 3.57524752,0.0168421053 8.35951595,0.0168421053 C11.2093509,0.0168421053 12.9192519,0.774736842 14.5773377,2.13894737 L12.4011001,4.71578947 C11.1748075,3.72210526 10.0866887,3.14947368 8.25588559,3.14947368 C5.71694169,3.14947368 3.71342134,5.33894737 3.71342134,7.94947368 L3.71342134,8 C3.71342134,10.8294737 5.69966997,12.9010526 8.5149615,12.9010526 C9.77579758,12.9010526 10.9157316,12.5978947 11.7965897,11.9747368 L11.7965897,9.76842105 L8.29042904,9.76842105 L8.29042904,6.83789474 L15.1645765,6.83789474 L15.1645765,13.5410526 C13.5410341,14.8715789 11.2957096,15.9831579 8.39405941,15.9831579" id="Shape" sketch:type="MSShapeGroup"></path>
            <path d="M25.8730473,15.9831579 C20.9851485,15.9831579 17.4789879,12.4294737 17.4789879,8.05052632 L17.4789879,8 C17.4789879,3.62105263 21.019692,0.0168421053 25.9075908,0.0168421053 C30.7954895,0.0168421053 34.3016502,3.57052632 34.3016502,7.94947368 L34.3016502,8 C34.3016502,12.3789474 30.7609461,15.9831579 25.8730473,15.9831579 L25.8730473,15.9831579 L25.8730473,15.9831579 Z M30.6573157,8 C30.6573157,5.35578947 28.6710671,3.14947368 25.8730473,3.14947368 C23.0750275,3.14947368 21.1233223,5.30526316 21.1233223,7.94947368 L21.1233223,8 C21.1233223,10.6442105 23.109571,12.8505263 25.9248625,12.8505263 C28.740154,12.8505263 30.6745875,10.6947368 30.6745875,8.05052632 L30.6745875,8 L30.6573157,8 L30.6573157,8 Z" id="Shape" sketch:type="MSShapeGroup"></path>
            <path d="M44.3365237,15.9831579 C39.7767877,15.9831579 36.4088009,12.48 36.4088009,8.01684211 C36.4088009,3.60421053 39.759516,0.0168421053 44.4056106,0.0168421053 C47.2727173,0.0168421053 48.99989,1.01052632 50.5716172,2.45894737 L49.3453245,3.73894737 C48.0154015,2.50947368 46.5127613,1.61684211 44.3710671,1.61684211 C40.8649065,1.61684211 38.239604,4.37894737 38.239604,7.96631579 C38.239604,11.5536842 40.8821782,14.3663158 44.3710671,14.3663158 C46.5473047,14.3663158 47.9635864,13.5578947 49.4834983,12.1431579 L50.6579758,13.2715789 C49.0171617,14.9052632 47.2036304,15.9831579 44.3365237,15.9831579" id="Shape" sketch:type="MSShapeGroup"></path>
            <path d="M68.2060506,15.7136842 L66.2888889,15.7136842 L64.4235424,11.6378947 L55.8049505,11.6378947 L53.9223322,15.7136842 L52.0915292,15.7136842 L59.3111111,0.168421053 L60.9864686,0.168421053 L68.2060506,15.7136842 L68.2060506,15.7136842 Z M60.140154,2.20631579 L56.530363,10.0715789 L63.7326733,10.0715789 L60.140154,2.20631579 L60.140154,2.20631579 Z" id="Shape" sketch:type="MSShapeGroup"></path>
            <path d="M81.6779978,15.7136842 L77.0837184,9.71789474 L72.5585259,9.71789474 L72.5585259,15.7136842 L70.779538,15.7136842 L70.779538,0.286315789 L77.5845985,0.286315789 C81.0734873,0.286315789 83.3015402,2.12210526 83.3015402,4.90105263 C83.3015402,7.47789474 81.4880088,8.97684211 79.0008801,9.41473684 L83.8542354,15.7136842 L81.6779978,15.7136842 L81.6779978,15.7136842 Z M77.4464246,1.88631579 L72.5585259,1.88631579 L72.5585259,8.15157895 L77.4118812,8.15157895 C79.7781078,8.15157895 81.4880088,6.95578947 81.4880088,4.95157895 C81.4880088,3.03157895 80.0026403,1.88631579 77.4464246,1.88631579 L77.4464246,1.88631579 L77.4464246,1.88631579 Z" id="Shape" sketch:type="MSShapeGroup"></path>
            <path d="M92.2482948,15.7136842 L86.7558856,15.7136842 L86.7558856,0.286315789 L92.2482948,0.286315789 C97.2225523,0.286315789 100.659626,3.62105263 100.659626,7.98315789 C100.659626,12.3452632 97.2225523,15.7136842 92.2482948,15.7136842 M92.2482948,1.88631579 L88.5348735,1.88631579 L88.5348735,14.0968421 L92.2482948,14.0968421 C96.2553355,14.0968421 98.8115512,11.4526316 98.8115512,8.01684211 C98.8115512,4.58105263 96.2553355,1.88631579 92.2482948,1.88631579" id="Shape" sketch:type="MSShapeGroup"></path>
            <path d="M104.027613,0.286315789 L105.806601,0.286315789 L105.806601,14.1136842 L114.718812,14.1136842 L114.718812,15.7136842 L104.027613,15.7136842 L104.027613,0.286315789 L104.027613,0.286315789 Z" id="Shape" sketch:type="MSShapeGroup"></path>
            <path d="M128.79527,1.86947368 L119.140374,1.86947368 L119.140374,7.14105263 L127.776238,7.14105263 L127.776238,8.72421053 L119.140374,8.72421053 L119.140374,14.1305263 L128.916172,14.1305263 L128.916172,15.7136842 L117.361386,15.7136842 L117.361386,0.286315789 L128.79527,0.286315789 L128.79527,1.86947368 L128.79527,1.86947368 Z" id="Shape" sketch:type="MSShapeGroup"></path>
            <path d="M137.776568,7.15789474 C141.3,7.91578947 142.923542,9.16210526 142.923542,11.5368421 C142.923542,14.1978947 140.660946,15.9157895 137.517492,15.9157895 C135.013091,15.9157895 132.957756,15.1073684 131.057866,13.44 L132.163256,12.16 C133.821342,13.6084211 135.393069,14.3494737 137.586579,14.3494737 C139.711001,14.3494737 141.110011,13.2715789 141.110011,11.7052632 C141.110011,10.2568421 140.315512,9.43157895 136.99934,8.75789474 C133.355006,7.98315789 131.679648,6.83789474 131.679648,4.27789474 C131.679648,1.80210526 133.873157,0.0505263158 136.878438,0.0505263158 C139.192849,0.0505263158 140.833663,0.690526316 142.439934,1.95368421 L141.40363,3.30105263 C139.935534,2.13894737 138.467437,1.63368421 136.843894,1.63368421 C134.788559,1.63368421 133.475908,2.72842105 133.475908,4.14315789 C133.493179,5.62526316 134.30495,6.43368421 137.776568,7.15789474" id="Shape" sketch:type="MSShapeGroup"></path>
            <path d="M151.818482,7.15789474 C155.341914,7.91578947 156.965457,9.16210526 156.965457,11.5368421 C156.965457,14.1978947 154.70286,15.9157895 151.559406,15.9157895 C149.055006,15.9157895 146.99967,15.1073684 145.09978,13.44 L146.205171,12.16 C147.863256,13.6084211 149.434983,14.3494737 151.628493,14.3494737 C153.752915,14.3494737 155.151925,13.2715789 155.151925,11.7052632 C155.151925,10.2568421 154.357426,9.43157895 151.041254,8.75789474 C147.39692,7.98315789 145.721562,6.83789474 145.721562,4.27789474 C145.721562,1.80210526 147.915072,0.0505263158 150.920352,0.0505263158 C153.234763,0.0505263158 154.875578,0.690526316 156.481848,1.95368421 L155.445545,3.30105263 C153.977448,2.13894737 152.509351,1.63368421 150.885809,1.63368421 C148.830473,1.63368421 147.517822,2.72842105 147.517822,4.14315789 C147.517822,5.62526316 148.329593,6.43368421 151.818482,7.15789474" id="Shape" sketch:type="MSShapeGroup"></path>
        </g>
    </g>
</svg>

<svg width="157" height="16" viewBox="0 0 157 16" xmlns="http://www.w3.org/2000/svg">
    <desc>
        Created with Sketch.
    </desc>
    <g fill="#000">
        <path d="M8.394 15.983C3.472 15.983.07 12.615.07 8.05V8C.07 3.62 3.574.017 8.36.017c2.85 0 4.56.758 6.217 2.122L12.4 4.715c-1.225-.994-2.313-1.567-4.144-1.567-2.54 0-4.543 2.19-4.543 4.8V8c0 2.83 1.987 4.9 4.802 4.9 1.26 0 2.4-.302 3.282-.925V9.768H8.29v-2.93h6.875v6.703c-1.624 1.332-3.87 2.443-6.77 2.443" id="Shape"/>
        <path d="M25.873 15.983c-4.888 0-8.394-3.554-8.394-7.932V8c0-4.38 3.54-7.983 8.428-7.983 4.887 0 8.394 3.554 8.394 7.932V8c0 4.38-3.54 7.983-8.43 7.983zM30.657 8c0-2.644-1.986-4.85-4.784-4.85s-4.75 2.155-4.75 4.8V8c0 2.644 1.987 4.85 4.802 4.85 2.815 0 4.75-2.155 4.75-4.8V8h-.018zM44.337 15.983c-4.56 0-7.928-3.503-7.928-7.966 0-4.413 3.35-8 7.996-8 2.867 0 4.594.994 6.166 2.442l-1.227 1.28c-1.33-1.23-2.832-2.123-4.974-2.123-3.505 0-6.13 2.762-6.13 6.35 0 3.587 2.642 6.4 6.13 6.4 2.177 0 3.594-.81 5.113-2.224l1.175 1.13c-1.64 1.632-3.454 2.71-6.32 2.71" id="Shape"/>
        <path d="M68.206 15.714H66.29l-1.866-4.076h-8.62l-1.882 4.076h-1.83L59.312.168h1.674l7.22 15.546zM60.14 2.206l-3.61 7.866h7.203L60.14 2.206zM81.678 15.714l-4.594-5.996H72.56v5.996h-1.78V.286h6.805c3.488 0 5.717 1.836 5.717 4.615 0 2.578-1.814 4.077-4.3 4.515l4.852 6.3h-2.176zM77.446 1.886H72.56v6.266h4.852c2.366 0 4.076-1.196 4.076-3.2 0-1.92-1.485-3.066-4.042-3.066zM92.248 15.714h-5.492V.286h5.492c4.975 0 8.412 3.335 8.412 7.697s-3.437 7.73-8.412 7.73m0-13.827h-3.713v12.21h3.713c4.007 0 6.564-2.643 6.564-6.08 0-3.435-2.557-6.13-6.564-6.13" id="Shape"/>
        <path d="M104.028.286h1.78v13.828h8.91v1.6h-10.69V.286zM128.795 1.87h-9.655v5.27h8.636v1.584h-8.636v5.407h9.776v1.584H117.36V.286h11.435V1.87zM137.777 7.158c3.523.758 5.147 2.004 5.147 4.38 0 2.66-2.263 4.378-5.407 4.378-2.504 0-4.56-.81-6.46-2.476l1.106-1.28c1.658 1.448 3.23 2.19 5.424 2.19 2.124 0 3.523-1.078 3.523-2.645 0-1.448-.794-2.273-4.11-2.947-3.645-.775-5.32-1.92-5.32-4.48 0-2.476 2.193-4.227 5.198-4.227 2.315 0 3.956.64 5.562 1.904L141.404 3.3c-1.468-1.16-2.937-1.666-4.56-1.666-2.055 0-3.368 1.094-3.368 2.51.017 1.48.83 2.29 4.3 3.014M151.818 7.158c3.524.758 5.147 2.004 5.147 4.38 0 2.66-2.262 4.378-5.406 4.378-2.505 0-4.56-.81-6.46-2.476l1.105-1.28c1.658 1.448 3.23 2.19 5.423 2.19 2.125 0 3.524-1.078 3.524-2.645 0-1.448-.795-2.273-4.11-2.947-3.645-.775-5.32-1.92-5.32-4.48 0-2.476 2.193-4.227 5.198-4.227 2.315 0 3.956.64 5.562 1.904L155.446 3.3c-1.47-1.16-2.937-1.666-4.56-1.666-2.056 0-3.368 1.094-3.368 2.51 0 1.48.812 2.29 4.3 3.014"/>
    </g>
</svg>
